!!!SOCIAL_FUNCTION:	songs of the drum-presentation ceremony
!!!PDT:	1913
!!!OTL: No_6_War_Medicine_Song.krn
!!!REG: Great_Lakes
!!!LANG: Non-Tone
!!!LING_GROUP: Algonquin
**kern	**kern
*staff2	*staff1
=1-	=1-
*clefF4	*clefG2
*k[]	*k[]
*M2/4	*M2/4
8GG/L	4d/
8GG/J	.
8GG/L	4d/
8GG/J	.
=2||	=2||
*M3/4	*M3/4
8GG/L	4d/
8GG/J	.
8GG/L	4d/
8GG/J	.
8GG/L	4d/
8GG/J	.
=3||	=3||
*M2/4	*M2/4
2r	2d/
=4	=4
2r	4d/
.	4d/
=5	=5
2r	2d/
=6	=6
2r	4c/
.	4c/
=7||	=7||
*M3/4	*M3/4
2.r	2.c/
=8||	=8||
*M2/4	*M2/4
2r	4c/
.	4c/
=9||	=9||
*M3/4	*M3/4
2.r	4c/
.	4c/
.	4c/
=10||	=10||
*M2/4	*M2/4
2r	(4.c/
.	8A/)
*	*clefF4
=11	=11
*	*clefF4
2r	4A\
.	4A\
=12	=12
2r	2A\
=13	=13
2r	4G\
.	4G\
=14||	=14||
*M3/4	*M3/4
2.r	2.G\
=15||	=15||
*M2/4	*M2/4
2r	4G\
.	4G\
=16||	=16||
*M3/4	*M3/4
2.r	4G\
.	4G\
.	4G\
=17||	=17||
*M2/4	*M2/4
2r	(4.G\
.	8E\)
=18	=18
2r	4E\
.	4E\
=19	=19
2r	2E\
=20	=20
2r	4D\
.	4D\
=21||	=21||
*M3/4	*M3/4
2.r	2.D\
=22||	=22||
*M2/4	*M2/4
2r	4D\
.	4D\
=23||	=23||
*M3/4	*M3/4
2.r	4D\
.	4D\
.	4D\
=24||	=24||
*M2/4	*M2/4
2r	(4.D\
.	8C/)
=25	=25
2r	4C/
.	4C/
=26	=26
2r	2C/
==	==
*-	*-
